Sources/FrostedUI/Resources/Icons.xcassets/creditCard32.imageset/credit-card-32.svg

<svg width="32" height="32" viewBox="0 0 32 32" fill="none" xmlns="http://www.w3.org/2000/svg" data-fui-icon="true">
  <path
    d="M26.75 5C29.0972 5 31 6.90279 31 9.25V22.75C31 25.0972 29.0972 27 26.75 27H5.25C2.90279 27 1 25.0972 1 22.75V9.25C1 6.90279 2.90279 5 5.25 5H26.75ZM2.5 22.75C2.5 24.2688 3.73122 25.5 5.25 25.5H26.75C28.2688 25.5 29.5 24.2688 29.5 22.75V13H2.5V22.75ZM13.25 20C13.6642 20 14 20.3358 14 20.75C14 21.1642 13.6642 21.5 13.25 21.5H6.75C6.33579 21.5 6 21.1642 6 20.75C6 20.3358 6.33579 20 6.75 20H13.25ZM5.25 6.5C3.73122 6.5 2.5 7.73122 2.5 9.25V11.5H29.5V9.25C29.5 7.73122 28.2688 6.5 26.75 6.5H5.25Z"
    fill="currentColor"
  />
</svg>

<svg xmlns="http://www.w3.org/2000/svg" width="32" height="32" fill="none" data-fui-icon="true" viewBox="0 0 32 32"><path fill="currentColor" d="M26.75 5A4.25 4.25 0 0 1 31 9.25v13.5A4.25 4.25 0 0 1 26.75 27H5.25A4.25 4.25 0 0 1 1 22.75V9.25A4.25 4.25 0 0 1 5.25 5zM2.5 22.75a2.75 2.75 0 0 0 2.75 2.75h21.5a2.75 2.75 0 0 0 2.75-2.75V13h-27zM13.25 20a.75.75 0 0 1 0 1.5h-6.5a.75.75 0 0 1 0-1.5zm-8-13.5A2.75 2.75 0 0 0 2.5 9.25v2.25h27V9.25a2.75 2.75 0 0 0-2.75-2.75z"/></svg>
